X: 2308
T: Baddeck Gathering, The
R: jig
M: 6/8
K: Dmajor
A,|DED FEF|D3 D2 A,|DED FDF|A3 ABc|
dBd =cAc|BGB A2 B|AFA d2 F|EFE EDB,|
A,B,D FEF|D3 D2 A,|D2 D FDF|A3 ABc|
dBd =cAc|BGB A2 G|FED A,FE|D3 D2||
g|fga dcd|dfa afd|efg =c2 g|efg gfe|
fga d2 g|fga afd|efg ABc|d3 d2 e|
fga dcd|dfa afd|efg =c2 g|efg gfe|
fga ABc|dcd A2 G|FED A,FE|D3 D2||

